packages/ffe-icons/icons/open/300/md/ad_units.svg

<svg xmlns="http://www.w3.org/2000/svg" height="24" viewBox="0 -960 960 960" width="24"><path d="M360-620.001q-12.769 0-21.384-8.616-8.615-8.615-8.615-21.384t8.615-21.384Q347.231-680 360-680h240q12.769 0 21.384 8.615t8.615 21.384q0 12.769-8.615 21.384-8.615 8.616-21.384 8.616H360Zm-67.691 560q-30.308 0-51.308-21t-21-51.308v-695.382q0-30.308 21-51.308t51.308-21h375.382q30.308 0 51.308 21t21 51.308v695.382q0 30.308-21 51.308t-51.308 21H292.309Zm-12.309-110v37.692q0 4.616 3.846 8.463 3.847 3.846 8.463 3.846h375.382q4.616 0 8.463-3.846 3.846-3.847 3.846-8.463v-37.692H280Zm0-59.998h400v-500.002H280v500.002Zm0-560h400v-37.692q0-4.616-3.846-8.463-3.847-3.846-8.463-3.846H292.309q-4.616 0-8.463 3.846-3.846 3.847-3.846 8.463v37.692Zm0 0V-840v50.001Zm0 619.998V-120v-50.001Z"/></svg>

<svg xmlns="http://www.w3.org/2000/svg" height="24" viewBox="0 -960 960 960" width="24"><path d="M360-620q-12.77 0-21.38-8.62Q330-637.23 330-650t8.62-21.38Q347.23-680 360-680h240q12.77 0 21.38 8.62Q630-662.77 630-650t-8.62 21.38Q612.77-620 600-620H360ZM292.31-60Q262-60 241-81q-21-21-21-51.31v-695.38Q220-858 241-879q21-21 51.31-21h375.38Q698-900 719-879q21 21 21 51.31v695.38Q740-102 719-81q-21 21-51.31 21H292.31ZM280-170v37.69q0 4.62 3.85 8.46 3.84 3.85 8.46 3.85h375.38q4.62 0 8.46-3.85 3.85-3.84 3.85-8.46V-170H280Zm0-60h400v-500H280v500Zm0-560h400v-37.69q0-4.62-3.85-8.46-3.84-3.85-8.46-3.85H292.31q-4.62 0-8.46 3.85-3.85 3.84-3.85 8.46V-790Zm0 0v-50 50Zm0 620v50-50Z"/></svg>
